spyder/images/dark/environ.svg

<svg width="24" height="24" viewBox="0 0 24 24" fill="none" xmlns="http://www.w3.org/2000/svg">
<path d="M6.62363 16H2.27901C2.093 16 2 15.9129 2 15.7387V8.26127C2 8.08709 2.093 8 2.27901 8H6.62363C6.80078 8 6.88936 8.08709 6.88936 8.26127V9.10731C6.88936 9.28149 6.80078 9.36858 6.62363 9.36858H3.8468C3.74051 9.36858 3.68736 9.4142 3.68736 9.50544V11.1229C3.68736 11.2141 3.74051 11.2597 3.8468 11.2597H6.11875C6.30476 11.2597 6.39777 11.3468 6.39777 11.521V12.367C6.39777 12.5412 6.30476 12.6283 6.11875 12.6283H3.8468C3.74051 12.6283 3.68736 12.6739 3.68736 12.7652V14.4946C3.68736 14.5858 3.74051 14.6314 3.8468 14.6314H6.62363C6.80078 14.6314 6.88936 14.7185 6.88936 14.8927V15.7387C6.88936 15.9129 6.80078 16 6.62363 16Z" fill="#FAFAFA"/>
<path d="M9.73948 16H8.63671C8.45071 16 8.3577 15.9129 8.3577 15.7387V8.26127C8.3577 8.08709 8.45071 8 8.63671 8H9.63319C9.8192 8 9.9432 8.05806 10.0052 8.17418L12.689 12.8896H12.7422V8.26127C12.7422 8.08709 12.8352 8 13.0212 8H14.124C14.31 8 14.403 8.08709 14.403 8.26127V15.7387C14.403 15.9129 14.31 16 14.124 16H13.1541C12.9592 16 12.8175 15.9171 12.7289 15.7512L10.0716 11.1229H10.0185V15.7387C10.0185 15.9129 9.92549 16 9.73948 16Z" fill="#FAFAFA"/>
<path d="M19.6107 16H17.8702C17.6842 16 17.5734 15.9129 17.538 15.7387L15.4786 8.28616C15.4166 8.09539 15.5052 8 15.7444 8H16.9933C17.1704 8 17.2767 8.08709 17.3122 8.26127L18.7072 14.3826H18.7604L20.1554 8.26127C20.1908 8.08709 20.2971 8 20.4743 8H21.7232C21.9446 8 22.0332 8.09539 21.9889 8.28616L19.9296 15.7387C19.8853 15.9129 19.779 16 19.6107 16Z" fill="#FAFAFA"/>
</svg>

<svg xmlns="http://www.w3.org/2000/svg" width="24" height="24" fill="none"><path fill="#FAFAFA" d="M6.624 16H2.279C2.093 16 2 15.913 2 15.739V8.26C2 8.087 2.093 8 2.279 8h4.345c.177 0 .265.087.265.261v.846c0 .174-.088.262-.265.262H3.847c-.106 0-.16.045-.16.136v1.618c0 .091.054.137.16.137h2.272c.186 0 .279.087.279.261v.846c0 .174-.093.261-.28.261H3.848c-.106 0-.16.046-.16.137v1.73c0 .09.054.136.16.136h2.777c.177 0 .265.088.265.262v.846c0 .174-.088.261-.265.261ZM9.74 16H8.636c-.186 0-.28-.087-.28-.261V8.26c0-.174.094-.261.28-.261h.996c.186 0 .31.058.372.174l2.684 4.716h.053V8.26c0-.174.093-.261.28-.261h1.102c.186 0 .279.087.279.261v7.478c0 .174-.093.261-.279.261h-.97a.448.448 0 0 1-.425-.249l-2.657-4.628h-.053v4.616c0 .174-.094.261-.28.261ZM19.61 16h-1.74c-.186 0-.297-.087-.332-.261l-2.06-7.453c-.061-.19.027-.286.266-.286h1.25c.176 0 .283.087.318.261l1.395 6.122h.053l1.395-6.122c.036-.174.142-.261.32-.261h1.248c.222 0 .31.095.266.286l-2.06 7.453c-.044.174-.15.261-.318.261Z"/></svg>
